flaticon/household/window-1.svg

<svg xmlns="http://www.w3.org/2000/svg" width="32" height="32" viewBox="0 0 24 24">
    <path d="M6.398438 6C6.503906 6 6.605469 5.960938 6.683594 5.882812L8.28125 4.28125C8.4375 4.125 8.4375 3.875 8.28125 3.71875 8.125 3.5625 7.875 3.5625 7.71875 3.71875L6.117188 5.316406C5.960938 5.472656 5.960938 5.726562 6.117188 5.882812 6.195312 5.960938 6.296875 6 6.398438 6zM6.917969 6.515625L6.117188 7.316406C5.960938 7.472656 5.960938 7.726562 6.117188 7.882812 6.195312 7.960938 6.296875 8 6.398438 8 6.503906 8 6.605469 7.960938 6.683594 7.882812L7.484375 7.082031C7.640625 6.925781 7.640625 6.671875 7.484375 6.515625 7.328125 6.359375 7.074219 6.359375 6.917969 6.515625zM7.714844 5.714844C7.644531 5.792969 7.601562 5.894531 7.601562 6 7.601562 6.105469 7.644531 6.207031 7.714844 6.285156 7.792969 6.355469 7.894531 6.398438 8 6.398438 8.105469 6.398438 8.207031 6.355469 8.285156 6.285156 8.355469 6.207031 8.398438 6.105469 8.398438 6 8.398438 5.894531 8.355469 5.792969 8.285156 5.714844 8.136719 5.566406 7.863281 5.566406 7.714844 5.714844zM9.71875 3.71875L8.515625 4.917969C8.359375 5.074219 8.359375 5.328125 8.515625 5.484375 8.59375 5.5625 8.699219 5.601562 8.800781 5.601562 8.902344 5.601562 9.003906 5.5625 9.082031 5.484375L10.28125 4.28125C10.4375 4.125 10.4375 3.875 10.28125 3.71875 10.125 3.5625 9.875 3.5625 9.71875 3.71875zM17.316406 12.117188L15.71875 13.71875C15.5625 13.875 15.5625 14.125 15.71875 14.28125 15.796875 14.359375 15.898438 14.398438 16 14.398438 16.101562 14.398438 16.203125 14.359375 16.28125 14.28125L17.882812 12.683594C18.039062 12.527344 18.039062 12.273438 17.882812 12.117188 17.726562 11.960938 17.472656 11.960938 17.316406 12.117188zM16.800781 11.601562C16.902344 11.601562 17.003906 11.5625 17.082031 11.484375L17.882812 10.683594C18.039062 10.527344 18.039062 10.273438 17.882812 10.117188 17.726562 9.960938 17.472656 9.960938 17.316406 10.117188L16.515625 10.917969C16.359375 11.074219 16.359375 11.328125 16.515625 11.484375 16.59375 11.5625 16.699219 11.601562 16.800781 11.601562zM16 12.398438C16.105469 12.398438 16.207031 12.355469 16.285156 12.285156 16.355469 12.207031 16.398438 12.105469 16.398438 12 16.398438 11.894531 16.355469 11.792969 16.285156 11.714844 16.132812 11.566406 15.867188 11.566406 15.714844 11.714844 15.644531 11.792969 15.601562 11.894531 15.601562 12 15.601562 12.105469 15.644531 12.207031 15.714844 12.285156 15.792969 12.355469 15.894531 12.398438 16 12.398438zM15.484375 12.515625C15.328125 12.359375 15.074219 12.359375 14.917969 12.515625L13.71875 13.71875C13.5625 13.875 13.5625 14.125 13.71875 14.28125 13.796875 14.359375 13.898438 14.398438 14 14.398438 14.101562 14.398438 14.203125 14.359375 14.28125 14.28125L15.484375 13.082031C15.640625 12.925781 15.640625 12.671875 15.484375 12.515625zM15.484375 12.515625"/>
    <path d="M 23.199219 1.601562 L 23.601562 1.601562 C 23.820312 1.601562 24 1.421875 24 1.199219 C 24 0.980469 23.820312 0.800781 23.601562 0.800781 L 23.199219 0.800781 L 23.199219 0.398438 C 23.199219 0.179688 23.019531 0 22.800781 0 C 22.578125 0 22.398438 0.179688 22.398438 0.398438 L 22.398438 0.800781 L 21.601562 0.800781 L 21.601562 0.398438 C 21.601562 0.179688 21.421875 0 21.199219 0 C 20.980469 0 20.800781 0.179688 20.800781 0.398438 L 20.800781 0.800781 L 20 0.800781 L 20 0.398438 C 20 0.179688 19.820312 0 19.601562 0 C 19.378906 0 19.199219 0.179688 19.199219 0.398438 L 19.199219 0.800781 L 4.800781 0.800781 L 4.800781 0.398438 C 4.800781 0.179688 4.621094 0 4.398438 0 C 4.179688 0 4 0.179688 4 0.398438 L 4 0.800781 L 3.199219 0.800781 L 3.199219 0.398438 C 3.199219 0.179688 3.019531 0 2.800781 0 C 2.578125 0 2.398438 0.179688 2.398438 0.398438 L 2.398438 0.800781 L 1.601562 0.800781 L 1.601562 0.398438 C 1.601562 0.179688 1.421875 0 1.199219 0 C 0.980469 0 0.800781 0.179688 0.800781 0.398438 L 0.800781 0.800781 L 0.398438 0.800781 C 0.179688 0.800781 0 0.980469 0 1.199219 C 0 1.421875 0.179688 1.601562 0.398438 1.601562 L 0.800781 1.601562 L 0.800781 2 L 0 2 L 0 24 L 5.601562 24 L 5.601562 18.398438 L 18.398438 18.398438 L 18.398438 24 L 24 24 L 24 2 L 23.199219 2 Z M 19.199219 1.601562 L 19.199219 2 L 12.398438 2 L 12.398438 8 C 12.179688 8 12 8.179688 12 8.398438 C 12 8.621094 12.179688 8.800781 12.398438 8.800781 L 12.398438 15.601562 L 18.398438 15.601562 L 18.398438 16 L 5.601562 16 L 5.601562 15.601562 L 11.601562 15.601562 L 11.601562 2 L 4.800781 2 L 4.800781 1.601562 Z M 13.199219 8.800781 L 14 8.800781 C 14.222656 8.800781 14.398438 8.621094 14.398438 8.398438 C 14.398438 8.179688 14.222656 8 14 8 L 13.199219 8 L 13.199219 2.800781 L 18.398438 2.800781 L 18.398438 14.800781 L 13.199219 14.800781 Z M 5.601562 14.800781 L 5.601562 2.800781 L 10.800781 2.800781 L 10.800781 14.800781 Z M 1.601562 23.199219 L 0.800781 23.199219 L 0.800781 2.800781 L 1.601562 2.800781 Z M 1.601562 2 L 1.601562 1.601562 L 2.398438 1.601562 L 2.398438 2 Z M 3.199219 23.199219 L 2.398438 23.199219 L 2.398438 2.800781 L 3.199219 2.800781 Z M 3.199219 2 L 3.199219 1.601562 L 4 1.601562 L 4 2 Z M 4.800781 23.199219 L 4 23.199219 L 4 2.800781 L 4.800781 2.800781 Z M 5.601562 17.601562 L 5.601562 16.800781 L 18.398438 16.800781 L 18.398438 17.601562 Z M 20 23.199219 L 19.199219 23.199219 L 19.199219 2.800781 L 20 2.800781 Z M 20 2 L 20 1.601562 L 20.800781 1.601562 L 20.800781 2 Z M 21.601562 23.199219 L 20.800781 23.199219 L 20.800781 2.800781 L 21.601562 2.800781 Z M 23.199219 23.199219 L 22.398438 23.199219 L 22.398438 2.800781 L 23.199219 2.800781 Z M 21.601562 2 L 21.601562 1.601562 L 22.398438 1.601562 L 22.398438 2 Z M 21.601562 2"/>
</svg>

<svg xmlns="http://www.w3.org/2000/svg" width="32" height="32" viewBox="0 0 24 24">
    <path d="M6.398 6c.106 0 .207-.04.286-.117L8.28 4.28a.396.396 0 0 0 0-.562.396.396 0 0 0-.562 0L6.117 5.316A.4.4 0 0 0 6.398 6zm0 0M6.918 6.516l-.8.8a.4.4 0 0 0 .566.567l.8-.801a.4.4 0 0 0-.566-.566zm0 0M7.715 5.715A.43.43 0 0 0 7.602 6a.43.43 0 0 0 .113.285.43.43 0 0 0 .285.113.43.43 0 0 0 .285-.113A.43.43 0 0 0 8.398 6a.43.43 0 0 0-.113-.285.42.42 0 0 0-.57 0zm0 0M9.719 3.719L8.516 4.918a.4.4 0 0 0 .566.566l1.2-1.203a.396.396 0 0 0 0-.562.396.396 0 0 0-.563 0zm0 0M17.316 12.117L15.72 13.72a.396.396 0 0 0 0 .562.396.396 0 0 0 .562 0l1.602-1.597a.4.4 0 0 0-.567-.567zm0 0M16.8 11.602c.102 0 .204-.04.282-.118l.8-.8a.4.4 0 0 0-.566-.567l-.8.801a.4.4 0 0 0 .285.684zm0 0M16 12.398a.43.43 0 0 0 .285-.113.43.43 0 0 0 .113-.285.43.43 0 0 0-.113-.285.42.42 0 0 0-.57 0 .43.43 0 0 0-.113.285.43.43 0 0 0 .113.285.43.43 0 0 0 .285.113zm0 0M15.484 12.516a.4.4 0 0 0-.566 0l-1.2 1.203a.396.396 0 0 0 0 .562.396.396 0 0 0 .563 0l1.203-1.199a.4.4 0 0 0 0-.566zm0 0"/>
    <path d="M23.2 1.602h.402a.401.401 0 0 0 0-.801h-.403V.398a.4.4 0 0 0-.8 0v.403h-.797V.398a.401.401 0 0 0-.801 0v.403H20V.398a.4.4 0 0 0-.8 0v.403H4.8V.398a.401.401 0 0 0-.8 0v.403h-.8V.398a.4.4 0 0 0-.802 0v.403h-.796V.398a.401.401 0 0 0-.801 0v.403H.398a.4.4 0 0 0 0 .8h.403V2H0v22h5.602v-5.602h12.796V24H24V2h-.8zm-4 0V2h-6.802v6a.4.4 0 0 0 0 .8v6.802h6V16H5.602v-.398h6V2H4.8v-.398zm-6 7.199h.8c.223 0 .398-.18.398-.403A.398.398 0 0 0 14 8h-.8V2.8h5.198v12H13.2zm-7.598 6v-12H10.8v12zm-4 8.398H.8V2.801h.8zM1.602 2v-.398h.796V2zm1.597 21.2h-.8V2.8h.8zM3.2 2v-.398H4V2zm1.602 21.2H4V2.8h.8zm.8-5.598V16.8h12.797v.8zM20 23.199h-.8V2.801h.8zM20 2v-.398h.8V2zm1.602 21.2H20.8V2.8h.8zm1.597 0h-.8V2.8h.8zM21.602 2v-.398h.796V2zm0 0"/>
</svg>
